X:4
T:CLEMENS' -- REEL.
R:reel
Z:20020507 John Walsh <walsh:mat:h.ubc.ca>
M:C|
L:1/8
K:F
vF2 (Ac) f2(de)|{g}fefd (eg)g2|F2 (Ac) fagf|ebge fdcA|
F2 (Ac) f2(de)|{g}fefd eg(ga)|bagf gfed|(cb)eg f2z2:|
|:f2 (cf) (Af) (cf)|fagf egga|f2 (cf) AFcF|BdcB Acde|
f2 (cf) (Af) (cf)|fagf egga|bagf gfed|cbeg f2 z2:|
